src/svg/arrow-move.svg

<svg version="1.2" baseProfile="tiny" xmlns="http://www.w3.org/2000/svg" width="24" height="24" viewBox="0 0 24 24"><path d="M17.707 8.293c-.391-.391-1.023-.391-1.414 0s-.391 1.023 0 1.414l1.293 1.293h-4.586v-4.586l1.293 1.293c.195.195.451.293.707.293s.512-.098.707-.293c.391-.391.391-1.023 0-1.414l-3.707-3.707-3.707 3.707c-.391.391-.391 1.023 0 1.414s1.023.391 1.414 0l1.293-1.293v4.586h-4.586l1.293-1.293c.391-.391.391-1.023 0-1.414s-1.023-.391-1.414 0l-3.707 3.707 3.707 3.707c.195.195.451.293.707.293s.512-.098.707-.293c.391-.391.391-1.023 0-1.414l-1.293-1.293h4.586v4.586l-1.293-1.293c-.391-.391-1.023-.391-1.414 0s-.391 1.023 0 1.414l3.707 3.707 3.707-3.707c.391-.391.391-1.023 0-1.414s-1.023-.391-1.414 0l-1.293 1.293v-4.586h4.586l-1.293 1.293c-.391.391-.391 1.023 0 1.414.195.195.451.293.707.293s.512-.098.707-.293l3.707-3.707-3.707-3.707z"/></svg>

<?xml version="1.0" encoding="iso-8859-1"?>
<!-- Generator: Adobe Illustrator 16.2.1, SVG Export Plug-In . SVG Version: 6.00 Build 0)  -->
<svg version="1.2" baseProfile="tiny" id="Layer_1" xmlns="http://www.w3.org/2000/svg" xmlns:xlink="http://www.w3.org/1999/xlink"
	 x="0px" y="0px" width="24px" height="24px" viewBox="0 0 24 24" xml:space="preserve">
<g>
	<path d="M17.707,8.293c-0.391-0.391-1.023-0.391-1.414,0s-0.391,1.023,0,1.414L17.586,11H13V6.414l1.293,1.293
		C14.488,7.902,14.744,8,15,8s0.512-0.098,0.707-0.293c0.391-0.391,0.391-1.023,0-1.414L12,2.586L8.293,6.293
		c-0.391,0.391-0.391,1.023,0,1.414s1.023,0.391,1.414,0L11,6.414V11H6.414l1.293-1.293c0.391-0.391,0.391-1.023,0-1.414
		s-1.023-0.391-1.414,0L2.586,12l3.707,3.707C6.488,15.902,6.744,16,7,16s0.512-0.098,0.707-0.293c0.391-0.391,0.391-1.023,0-1.414
		L6.414,13H11v4.586l-1.293-1.293c-0.391-0.391-1.023-0.391-1.414,0s-0.391,1.023,0,1.414L12,21.414l3.707-3.707
		c0.391-0.391,0.391-1.023,0-1.414s-1.023-0.391-1.414,0L13,17.586V13h4.586l-1.293,1.293c-0.391,0.391-0.391,1.023,0,1.414
		C16.488,15.902,16.744,16,17,16s0.512-0.098,0.707-0.293L21.414,12L17.707,8.293z"/>
</g>
</svg>
